X:397
T:Lamplighter's Hornpipe
C:Trad.
S:Colin Hume's website,  colinhume.com  - chords can also be printed below the stave.
Q:1/2=120
M:2/2
L:1/8
K:A
P:A
|: cd | "A"ecec eagf | "A"ecec eagf | "A"ecec "F#m"fedc | "Bm"d2B2 "E7"B2cd | "A"ecec eagf | "A"ecec eagf | "E7"efde cdBc | "A"A2A2 A2 :|
P:B
|: cd | "A"edcd e2fe | "Bm"dcBc "E7"d2ed | "A"cAcA "Bm"dcBA | "E7"B2B2 B2cd | "A"edcd e2fe | "Bm"dcBc "E7"d2cd | "A"eagf "E7"edcB | "A"A2A2 A2 :|
